X:1
T:Walking with Jesus My Lord
T:Walking with Jesus My Lord
T:John Robson Sweney
T:Isaac R. Embree, 1894
T:Public Domain Courtesy of the Cyber Hymnal™
T:Public Domain Courtesy of the Cyber Hymnal™
C:John Robson Sweney
Z:Public Domain
Z:Courtesy of the Cyber Hymnal™
%%score ( 1 2 ) ( 3 4 )
L:1/8
Q:1/4=93
M:6/8
K:C
V:1 treble 
V:2 treble 
V:3 bass 
V:4 bass 
V:1
 [EG][EG][EG] [FA][EG][CE] | [EG][Ec][Ec] [Ec]3 | [Fc][Fc][Fc] [Fd][Fc][FA] | [EG]6 | %4
w: 1.~Walk- ing with Je- sus, from|morn- ing till night,|Walk- ing with Je- sus my|Lord;|
w: 2.~Walk- ing with Je- sus when|dan- ger is nigh,|Walk- ing with Je- sus my|Lord;|
w: 3.~Walk- ing with Je- sus, when|friends prove un- true|Walk- ing with Je- sus my|Lord;|
w: 4.~Walk- ing with Je- sus, by|faith and not sight,|Walk- ing with Je- sus my|Lord;|
 [DG][DG][DG] [B,D][CE][DF] | [CE][EG][Ec] [Ge]3 | [^Fd][Fd][Fc] [FB][FB][FA] | G3- G2 z | %8
w: Walk- ing with Je- sus, in|gar- ments made white,|Walk- ing with Je- sus my|Lord; *|
w: Walk- ing with Je- sus, when|bil- lows run high;|Walk- ing with Je- sus my|Lord; *|
w: Walk- ing with Je- sus, what-|ev- er they do;|Walk- ing with Je- sus my|Lord; *|
w: Walk- ing with Je- sus, with|songs of de- light;|Walk- ing with Je- sus my|Lord; *|
 [FG][Fd][Fd] [Fd][FA][FB] | [Fd][Ec][Ec] [EG]3 | [FA][Fc][Fc] [Ac]B[FA] | [FA][EG][CE] [B,D]3 || %12
w: Walk- ing with Je- sus, with|hand clasped in hand,|Walk- ing with Je- sus in|Ca- naan’s bright land,|
w: Walk- ing with Je- sus in|po- ver- ty’s vale,|Walk- ing with Je- sus whose|love will ne’er fail,|
w: Walk- ing with Je- sus, in|step by His side,|Walk- ing with Je- sus what-|ev- er be- tide,|
w: Walk- ing with Je- sus, my|staff and my stay,|Walk- ing with Je- sus, the|truth and the way,|
"^Refrain" ECE GEG | cc[Ec] ([Fc]2 [^Fd]) | [Ge][Gd][Gc] [FB][FA][FB] | [Ec]3- [Ec]2 z | %16
w: ||||
w: Walk- ing with Je- sus, O|blest be His name! *|Walk- ing with Je- sus my|Lord. *|
w: ||||
w: ||||
 [Ec]4 [GB][FA] | [EG]3 [CE]3 | [CA]4 [CG][CE] | [CE]3 [B,D]3 | ECE GEG | cc[Ec] ([Fc]2 [^Fd]) | %22
w: ||||||
w: Walk- ing with|Je- sus,|walk- ing with|Je- sus,|Walk- ing with Je- sus, O|blest be His name! *|
w: ||||||
w: ||||||
 [Ge][Gd][Gc] [FB][FA][FB] | [Ec]6 |] %24
w: ||
w: Walk- ing with Je- sus my|Lord.|
w: ||
w: ||
V:2
 x6 | x6 | x6 | x6 | x6 | x6 | x6 | G3- G2 x | x6 | x6 | x4 B x | x6 || ECE GEG | cc x4 | x6 | x6 | %16
 x6 | x6 | x6 | x6 | ECE GEG | cc x4 | x6 | x6 |] %24
V:3
 [C,C][C,C][C,C] [C,C][C,C][C,G,] | [C,C][C,G,][C,G,] [C,G,]3 | %2
w: ~ ~ ~ ~ ~ ~|~ ~ ~ ~|
 [F,A,][F,A,][F,A,] [F,A,][F,A,][F,C] | [C,C]6 | [G,B,][G,B,][G,B,] [G,,G,][G,,G,][G,,G,] | %5
w: ~ ~ ~ ~ ~ ~|~|~ ~ ~ ~ ~ ~|
 [C,G,][G,,G,][G,,G,] [C,C]3 | [D,A,][D,A,][D,A,] [D,D][D,D][D,C] | [G,B,]3- [G,B,]2 z | %8
w: ~ ~ ~ ~|~ ~ ~ ~ ~ ~|~ *|
 [G,B,][G,B,][G,B,] [G,B,][G,C][G,D] | [C,C][C,G,][C,G,] [C,C]3 | %10
w: ~ ~ ~ ~ ~ ~|~ ~ ~ ~|
 [F,C][F,A,][F,A,] [F,A,][F,B,][F,C] | [C,C][C,C][C,G,] [G,,G,]3 || E,C,E, G,E,G, | %13
w: ~ ~ ~ ~ ~ ~|~ ~ ~ ~|~ ~ ~ ~ ~ ~|
 CC[_B,C] [A,C]3 | [G,C][G,F][G,E] [G,,D][G,,D][G,,G,] | [C,G,]3- [C,G,]2 z | %16
w: ~ ~ ~ ~|~ ~ ~ ~ ~ ~|~ *|
 [C,G,][C,G,][C,G,] [C,G,][C,A,]B, | [C,C]3 [C,G,]3 | F,F,F, F,[E,G,][C,G,] | [G,,G,]3 [G,,G,]3 | %20
w: Walk- ing, yes, walk- ing with|Je- sus,|Walk- ing, yes, walk- ing with|Je- sus,|
 E,C,E, G,E,G, | CC[_B,C] [A,C]3 | [G,C][G,F][G,E] [G,,D][G,,D][G,,G,] | [C,G,]6 |] %24
w: ||||
V:4
 x6 | x6 | x6 | x6 | x6 | x6 | x6 | x6 | x6 | x6 | x6 | x6 || E,C,E, G,E,G, | CC x4 | x6 | x6 | %16
 x6 | x6 | F,F,F, F, x2 | x6 | E,C,E, G,E,G, | CC x4 | x6 | x6 |] %24

